.github/logo-light.svg

<svg width="1087" height="144" viewBox="0 0 1087 144" fill="none" xmlns="http://www.w3.org/2000/svg">
<path d="M196.8 17.35C204.9 17.35 210.75 23.65 210.75 31C210.75 38.65 204.9 44.35 196.8 44.35C188.7 44.35 183 38.65 183 31C183 23.65 188.7 17.35 196.8 17.35ZM208.8 128.5H184.8V53.2H208.8V128.5Z" fill="#2C3A4B"/>
<path d="M274.499 50.95C292.049 50.95 303.749 63.4 303.749 82.3V128.5H279.899V87.4C279.899 78.55 274.649 72.55 266.999 72.55C257.549 72.55 251.399 79 251.399 93.55V128.5H227.399V53.2H251.399V60.4C257.099 54.4 265.049 50.95 274.499 50.95Z" fill="#2C3A4B"/>
<path d="M356.273 109.75C363.923 109.75 370.073 105.7 372.623 96.55L394.673 101.35C390.923 119.2 375.023 130.75 356.273 130.75C333.773 130.75 315.173 114.7 315.173 90.85C315.173 67.15 333.773 50.95 356.273 50.95C374.573 50.95 390.473 62.2 394.673 79.9L372.173 85.3C370.073 76.15 363.923 71.95 356.273 71.95C345.473 71.95 338.273 79.9 338.273 90.85C338.273 101.95 345.473 109.75 356.273 109.75Z" fill="#2C3A4B"/>
<path d="M443.885 51.25C466.235 51.25 485.135 67.15 485.135 90.85C485.135 114.7 466.235 130.6 443.885 130.6C421.085 130.6 402.185 114.7 402.185 90.85C402.185 67.15 421.085 51.25 443.885 51.25ZM443.885 110.35C453.185 110.35 462.035 102.7 462.035 90.85C462.035 79.15 453.185 71.35 443.885 71.35C434.135 71.35 425.285 79.15 425.285 90.85C425.285 102.7 434.135 110.35 443.885 110.35Z" fill="#2C3A4B"/>
<path d="M595.016 50.95C611.066 50.95 623.816 63.1 623.816 81.4V128.5H599.966V86.5C599.966 77.95 594.416 72.55 587.366 72.55C578.516 72.55 572.666 79 572.666 91.6V128.5H548.666V86.5C548.666 77.95 543.116 72.55 535.916 72.55C527.216 72.55 521.516 79 521.516 91.6V128.5H497.516V53.2H521.516V60.1C526.616 54.4 533.966 50.95 543.716 50.95C554.216 50.95 563.216 55.45 568.316 63.7C574.316 55.9 583.316 50.95 595.016 50.95Z" fill="#2C3A4B"/>
<path d="M676.942 51.25C699.292 51.25 718.192 67.15 718.192 90.85C718.192 114.7 699.292 130.6 676.942 130.6C654.142 130.6 635.242 114.7 635.242 90.85C635.242 67.15 654.142 51.25 676.942 51.25ZM676.942 110.35C686.242 110.35 695.092 102.7 695.092 90.85C695.092 79.15 686.242 71.35 676.942 71.35C667.192 71.35 658.342 79.15 658.342 90.85C658.342 102.7 667.192 110.35 676.942 110.35Z" fill="#2C3A4B"/>
<path d="M809.773 13V128.5H785.773V122.5C779.923 127.75 772.123 130.75 762.373 130.75C742.423 130.75 725.623 114.7 725.623 90.85C725.623 67.15 742.423 50.95 762.373 50.95C772.123 50.95 779.923 53.95 785.773 59.2V13H809.773ZM767.323 110.35C777.073 110.35 785.773 102.55 785.773 90.85C785.773 79.3 777.073 71.35 767.323 71.35C756.823 71.35 749.173 79.3 749.173 90.85C749.173 102.55 756.823 110.35 767.323 110.35Z" fill="#2C3A4B"/>
<path d="M902.406 53.2V128.5H878.406V121.3C872.706 127.3 864.756 130.75 855.306 130.75C837.756 130.75 826.056 118.3 826.056 99.4V53.2H849.906V94.3C849.906 103.15 855.156 109.15 862.806 109.15C872.256 109.15 878.406 102.7 878.406 88.15V53.2H902.406Z" fill="#2C3A4B"/>
<path d="M1017.33 50.95C1033.38 50.95 1046.13 63.1 1046.13 81.4V128.5H1022.28V86.5C1022.28 77.95 1016.73 72.55 1009.68 72.55C1000.83 72.55 994.98 79 994.98 91.6V128.5H970.98V86.5C970.98 77.95 965.43 72.55 958.23 72.55C949.53 72.55 943.83 79 943.83 91.6V128.5H919.83V53.2H943.83V60.1C948.93 54.4 956.28 50.95 966.03 50.95C976.53 50.95 985.531 55.45 990.63 63.7C996.63 55.9 1005.63 50.95 1017.33 50.95Z" fill="#2C3A4B"/>
<path d="M1072.26 102.25C1080.21 102.25 1086.06 108.55 1086.06 115.75C1086.06 123.4 1080.21 129.25 1072.26 129.25C1064.31 129.25 1058.61 123.4 1058.61 115.75C1058.61 108.55 1064.31 102.25 1072.26 102.25Z" fill="#2C3A4B"/>
<circle cx="72.5" cy="71.5" r="27.5" fill="#FF6F61"/>
<circle cx="72" cy="72" r="59" stroke="#FF6F61" stroke-width="26"/>
</svg>

<svg width="1087" height="144" viewBox="0 0 1087 144" fill="none" xmlns="http://www.w3.org/2000/svg"><path d="M196.8 17.35c8.1 0 13.95 6.3 13.95 13.65 0 7.65-5.85 13.35-13.95 13.35S183 38.65 183 31c0-7.35 5.7-13.65 13.8-13.65m12 111.15h-24V53.2h24zm65.699-77.55c17.55 0 29.25 12.45 29.25 31.35v46.2h-23.85V87.4c0-8.85-5.25-14.85-12.9-14.85-9.45 0-15.6 6.45-15.6 21v34.95h-24V53.2h24v7.2c5.7-6 13.65-9.45 23.1-9.45m81.774 58.8c7.65 0 13.8-4.05 16.35-13.2l22.05 4.8c-3.75 17.85-19.65 29.4-38.4 29.4-22.5 0-41.1-16.05-41.1-39.9 0-23.7 18.6-39.9 41.1-39.9 18.3 0 34.2 11.25 38.4 28.95l-22.5 5.4c-2.1-9.15-8.25-13.35-15.9-13.35-10.8 0-18 7.95-18 18.9 0 11.1 7.2 18.9 18 18.9m87.612-58.5c22.35 0 41.25 15.9 41.25 39.6 0 23.85-18.9 39.75-41.25 39.75-22.8 0-41.7-15.9-41.7-39.75 0-23.7 18.9-39.6 41.7-39.6m0 59.1c9.3 0 18.15-7.65 18.15-19.5 0-11.7-8.85-19.5-18.15-19.5-9.75 0-18.6 7.8-18.6 19.5 0 11.85 8.85 19.5 18.6 19.5m151.131-59.4c16.05 0 28.8 12.15 28.8 30.45v47.1h-23.85v-42c0-8.55-5.55-13.95-12.6-13.95-8.85 0-14.7 6.45-14.7 19.05v36.9h-24v-42c0-8.55-5.55-13.95-12.75-13.95-8.7 0-14.4 6.45-14.4 19.05v36.9h-24V53.2h24v6.9c5.1-5.7 12.45-9.15 22.2-9.15 10.5 0 19.5 4.5 24.6 12.75 6-7.8 15-12.75 26.7-12.75m81.926.3c22.35 0 41.25 15.9 41.25 39.6 0 23.85-18.9 39.75-41.25 39.75-22.8 0-41.7-15.9-41.7-39.75 0-23.7 18.9-39.6 41.7-39.6m0 59.1c9.3 0 18.15-7.65 18.15-19.5 0-11.7-8.85-19.5-18.15-19.5-9.75 0-18.6 7.8-18.6 19.5 0 11.85 8.85 19.5 18.6 19.5M809.773 13v115.5h-24v-6c-5.85 5.25-13.65 8.25-23.4 8.25-19.95 0-36.75-16.05-36.75-39.9 0-23.7 16.8-39.9 36.75-39.9 9.75 0 17.55 3 23.4 8.25V13zm-42.45 97.35c9.75 0 18.45-7.8 18.45-19.5 0-11.55-8.7-19.5-18.45-19.5-10.5 0-18.15 7.95-18.15 19.5 0 11.7 7.65 19.5 18.15 19.5M902.406 53.2v75.3h-24v-7.2c-5.7 6-13.65 9.45-23.1 9.45-17.55 0-29.25-12.45-29.25-31.35V53.2h23.85v41.1c0 8.85 5.25 14.85 12.9 14.85 9.45 0 15.6-6.45 15.6-21V53.2zm114.924-2.25c16.05 0 28.8 12.15 28.8 30.45v47.1h-23.85v-42c0-8.55-5.55-13.95-12.6-13.95-8.85 0-14.7 6.45-14.7 19.05v36.9h-24v-42c0-8.55-5.55-13.95-12.75-13.95-8.7 0-14.4 6.45-14.4 19.05v36.9h-24V53.2h24v6.9c5.1-5.7 12.45-9.15 22.2-9.15 10.5 0 19.501 4.5 24.6 12.75 6-7.8 15-12.75 26.7-12.75m54.93 51.3c7.95 0 13.8 6.3 13.8 13.5 0 7.65-5.85 13.5-13.8 13.5s-13.65-5.85-13.65-13.5c0-7.2 5.7-13.5 13.65-13.5" fill="#2C3A4B"/><circle cx="72.5" cy="71.5" r="27.5" fill="#FF6F61"/><circle cx="72" cy="72" r="59" stroke="#FF6F61" stroke-width="26"/></svg>
